X:1
T:Title
%%score { ( 1 3 ) | 2 }
L:1/8
M:6/8
K:C
V:1 treble nm="Grand Piano"
V:3 treble 
V:2 bass 
V:1
 z3 z2[Q:1/4=100] [CE]/[DF]/ | [EG][_E^F][=EG] [Ec][=Fd][Ec] | [GB]3 A2 G | %3
 FED [B,FA][G,EG][G,DF] |[M:5/8] [G,CE]-[G,CE]- [G,CE]3 |[M:1/8] [CE]/[DF]/ | %6
[M:3/4] [EG][_E^F] [=EG][Ec] [=Fd][Ec] | [GB]3 [FA]2 [FA] | [^Fd][Fe] [Fd][FA] [GB][Ac] | %9
[M:5/8] B-B- B3 |[M:1/8] G |[M:3/4] d4 z2 | [Ec]3 [EG]2 [Ec] | dd dd cB | [Ec]6 | %15
 [EG]2 [EG][EG] [CE][DF] | [EG][Ec] [FA] [EG]2 [CE] | [EG][DF] [CE][B,D] [CE][DF] | [CE]6 | %19
 [EG]2 [EG][EG] [CE][DF] | [EG][Ec] [FA] [EG]2 [Ec] | dd dd cB | [Ec]6 |] %23
V:2
 z3 z2 [C,G,]/[C,G,]/ | [C,C][C,C][C,C] [C,G,][C,G,][C,C] | [F,C]3 [F,CF]2 [A,^CE] | %3
 [D,D][E,A,^C][F,A,] G,,A,,B,, |[M:5/8] C,-C,- C,3 |[M:1/8] [C,G,] | %6
[M:3/4] [C,C][C,C] [C,C][C,G,] [C,G,][C,C] | [F,C]3 [F,C]2 [F,A,] | %8
 [D,A,][D,A,] [D,A,][D,D] [D,D][D,D] |[M:5/8][K:treble] [G,DG]-[G,DG]- [G,DG]3 |[M:1/8] [G,B,F] | %11
[M:3/4] [G,DF][G,C] [G,B,][G,B,F] [G,CE][G,DF] | [C,C]3 [C,C]2 [C,G,] | %13
 [G,B,F][G,CE] [G,B,D][G,B,F] [G,CE][G,DF] | [C,C]6 | [C,C]2 [C,C][C,C] [C,G,][C,G,] | %16
 [C,C][C,C] [C,C] [C,C]2 [C,G,] | [G,,G,][G,,G,] [G,,G,][G,,G,] [G,,G,][G,,G,] | [C,G,]6 | %19
 [C,C]2 [C,C][C,C] [C,G,][C,G,] | [C,C][C,C] [C,C] [C,C]2 [C,G,] | %21
 [G,B,F][G,B,F] [G,B,F][G,F] [G,E][K:bass][G,D] | [C,G,]6 |] %23
V:3
 x6 | x6 | x6 | x6 |[M:5/8] x5 |[M:1/8] x |[M:3/4] x6 | x6 | x6 |[M:5/8] x5 |[M:1/8] x | %11
[M:3/4] z E Dd cB | x6 | x6 | x6 | x6 | x6 | x6 | x6 | x6 | x6 | x6 | x6 |] %23

